X:1
T:Title
%%score { ( 1 3 ) | 2 }
L:1/8
M:4/4
K:Ab
V:1 treble nm="Grand Piano"
V:3 treble 
V:2 bass 
V:1
 z4 z2[Q:1/4=94] [CA][DB] | [Ec][Ec] [Ec]>[EB] [EA]2 [FA]>[DF] |[M:3/4] E2- [CE-]>[CE-] [CE]2 | %3
[M:1/4] C[B,D] |[M:4/4] [CE][CE] [EA]>B c2 c>c |[M:3/4] B6 |[M:1/4] [A,EA][EB] | %7
[M:4/4] [Ec][Ec] [Ec]>[CB] [DB]<[CA] [Ec]>[EA] |[M:3/4] [DF][FB] [FA]>[DF] [DF]<[CE] | %9
[M:1/4] [A,C][B,D] |[M:4/4] [CE][CA] [EA]>B c e3 |[M:7/8] c2 B2 [CA]3 |[M:1/4] c>d |[M:3/4] e6 | %14
[M:1/4] [EGc]>[DEB] |[M:4/4] A6 z2 | B6 z2 | c6 z2 | eeec [DB]<[CA] [Ec][EA] | %19
 [DF][FB][FA][DF] [DF]<[CE] [A,C][B,D] | [CE][CA][EA]B c e3 |[M:7/8] c2 B2 [CA]3 |] %22
V:2
 z4 z2 [A,,A,][A,,A,] | [A,,A,][A,,A,] [A,,A,]>[B,,G,] [C,A,]2 [D,D]>[D,A,] | %2
[M:3/4] [A,,A,]2 [A,,A,]>[A,,A,] [A,,A,]2 |[M:1/4] [A,,E,A,][A,,E,] | %4
[M:4/4] [A,,A,][A,,A,] [C,A,]>[E,G,E] [A,E]2 [A,E]>[A,E] |[M:3/4] [E,G,E]2 [E,G,]>[E,G,] E,D, | %6
[M:1/4] C,[B,,G,] |[M:4/4] [A,,A,][A,,A,] [A,,A,]>[A,,A,] [A,,E,]<[A,,E,] [A,,A,]>[C,A,] | %8
[M:3/4] [D,A,][D,D] [D,D]>[D,A,] [D,A,]<[A,,A,] |[M:1/4] [A,,E,][A,,E,] | %10
[M:4/4] [A,,A,]2 [C,A,]>[E,G,E] [A,E] [A,CE]3 |[M:7/8] [E,A,E]2 [E,G,D]2 [A,,A,]3 | %12
[M:1/4][K:treble] [A,E]>[A,B,E] |[M:3/4] [A,CA]2 [A,C]>[A,C][K:bass] [A,C]2 |[M:1/4] E,>E, | %15
[M:4/4] A,,2 A,,>A,, A,,2 [A,E]>[A,E] | [E,G,E]2 [E,G,]>[E,G,] [E,G,]2 [E,B,E]>[E,B,E] | %17
 [A,,A,]2 [A,,A,]>[A,,A,] [A,,A,]2[K:treble] [A,E]>[A,B,E] | %18
 [A,CA][A,CA][A,CA][K:bass][A,E] [A,,A,]<[=A,,A,] [A,,A,][C,A,] | %19
 [D,A,][D,D][D,D][D,A,] [A,,A,]<[A,,A,] [A,,E,][A,,E,] | %20
 [A,,A,][A,,A,][C,A,][E,G,E] [A,E] [A,CE]3 |[M:7/8] [E,A,E]2 [E,G,D]2 [A,,A,]3 |] %22
V:3
 x8 | x8 |[M:3/4] C2 z2 z2 |[M:1/4] x2 |[M:4/4] x8 |[M:3/4] z2 E>E [G,E]2 |[M:1/4] x2 |[M:4/4] x8 | %8
[M:3/4] x6 |[M:1/4] x2 |[M:4/4] x8 |[M:7/8] x7 |[M:1/4] x2 |[M:3/4] z2 A>A A2 |[M:1/4] x2 | %15
[M:4/4] [CE]2 [CE]>[CE] [CE]2 c>c | z2 E>E E2 d>d | E2 E>E E2 c>d | x8 | x8 | x8 |[M:7/8] x7 |] %22

